src/client/pages/Main/resources/WhyMe/resources/caska.svg

<?xml version="1.0" encoding="UTF-8"?> <svg xmlns="http://www.w3.org/2000/svg" xmlns:xlink="http://www.w3.org/1999/xlink" width="92" height="66" viewBox="0 0 92 66"> <title>Untitled</title> <desc>Created using Figma</desc> <g id="Canvas" transform="translate(44 25)"> <g id="re_helmet"> <g id="Vector"> <use xlink:href="#path0_fill" transform="translate(-43.119 -24.596)" fill="#000"></use> </g> </g> </g> <defs> <path id="path0_fill" d="M 75.718 38.81C 75.658 37.672 75.574 36.482 75.448 35.241C 74.698 27.81 72.407 17.375 65.754 9.866C 59.954 3.319 51.845 -6.71387e-07 41.651 -6.71387e-07C 26.735 -6.71387e-07 15.266 9.451 13.521 12.197C 4.899 19.502 4.19617e-08 30.02 4.19617e-08 41.418L 0.047 41.792C 0.13 42.113 2.17 49.695 10.976 53.674C 23.268 59.231 38.894 65.193 55.58 65.192C 58.89 65.192 62.245 64.957 65.62 64.438C 87.439 61.083 90.237 56.038 90.237 52.017C 90.237 51.123 90.234 48.414 75.718 38.81ZM 63.502 11.848C 73.885 23.558 72.988 43.541 72.612 48.258L 55.133 52.628C 55.325 48.452 55.6 38.641 54.533 29.711C 53.24 18.899 49.883 6.74 36.35 3.425C 38.041 3.158 39.809 3.001 41.652 3.001C 50.945 3 58.296 5.977 63.502 11.848ZM 28.635 5.545C 42.643 5.588 49.504 12.937 51.554 30.067C 52.55 38.397 52.331 47.766 52.151 52.073L 46.715 48.995C 47.165 44.32 48.384 25.066 39.156 15.967C 33.323 10.216 27.166 8.503 22.317 8.726C 24.1 7.618 26.225 6.499 28.635 5.545ZM 15.886 14.14C 16 14.057 16.109 13.97 16.207 13.885C 16.496 13.653 16.782 13.417 17.08 13.193C 20.503 10.966 29.089 10.254 37.05 18.103C 44.982 25.925 44.176 43.291 43.762 48.27C 39.838 48.103 28.262 47.322 18.828 43.808C 12.545 41.468 7.658 37.459 4.297 31.902C 6.208 24.992 10.193 18.819 15.886 14.14ZM 65.164 61.472C 45.555 64.488 26.566 57.428 12.212 50.939C 5.341 47.834 3.326 42.255 3.001 41.207C 3.011 39.436 3.164 37.693 3.425 35.979C 7.886 41.956 13.564 45.048 17.78 46.619C 28.828 50.734 42.212 51.245 44.708 51.306L 53.306 56.175L 75.37 50.659L 75.495 49.635C 75.516 49.464 75.841 46.678 75.823 42.495C 82.986 47.371 86.976 50.956 87.237 52.016C 87.237 56.039 79.811 59.22 65.164 61.472Z"></path> </defs> </svg>

<svg xmlns="http://www.w3.org/2000/svg" xmlns:xlink="http://www.w3.org/1999/xlink" width="92" height="66"><use xlink:href="#path0_fill" transform="translate(.9 .4)"/><defs><path id="path0_fill" d="M75.7 38.8l-.3-3.6c-.7-7.4-3-17.8-9.6-25.3C60 3.3 51.8 0 41.7 0c-15 0-26.4 9.5-28.2 12.2A38 38 0 0 0 0 41.4v.4c.1.3 2.2 7.9 11 11.9 12.3 5.5 27.9 11.5 44.6 11.5a66 66 0 0 0 10-.8C87.4 61.1 90.2 56 90.2 52c0-.9 0-3.6-14.5-13.2zm-12.2-27c10.4 11.8 9.5 31.7 9.1 36.5l-17.5 4.3c.2-4.1.5-14-.6-22.9C53.2 19 50 6.7 36.4 3.4a34 34 0 0 1 5.3-.4c9.2 0 16.6 3 21.8 8.8zM28.6 5.5c14 0 20.9 7.4 23 24.6 1 8.3.7 17.7.6 22L46.7 49c.5-4.7 1.7-24-7.5-33-5.9-5.8-12-7.5-16.9-7.3 1.8-1 4-2.2 6.3-3.2zM16 14.1l.3-.2.9-.7c3.4-2.2 12-3 20 4.9 7.9 7.8 7 25.2 6.7 30.2-4-.2-15.5-1-25-4.5A28 28 0 0 1 4.3 32c2-7 5.9-13 11.6-17.8zm49.3 47.4c-19.6 3-38.6-4-53-10.6A16.7 16.7 0 0 1 3 41.2c0-1.8.2-3.5.4-5.2 4.5 6 10.2 9 14.4 10.6 11 4.1 24.4 4.6 27 4.7l8.5 4.9 22-5.5.2-1c0-.2.3-3 .3-7.2A42.2 42.2 0 0 1 87.2 52c0 4-7.4 7.2-22 9.5z"/></defs></svg>
